brandFactory_export/2.Regular/Archivador_2Regular.svg

<?xml version="1.0" encoding="UTF-8"?>
<svg width="24px" height="24px" viewBox="0 0 24 24" version="1.1" xmlns="http://www.w3.org/2000/svg" xmlns:xlink="http://www.w3.org/1999/xlink">
    <title>2.Regular/Archivador_2Regular</title>
    <g id="Symbols" stroke="none" stroke-width="1" fill="none" fill-rule="evenodd">
        <g id="2.Regular/Archivador_2Regular" fill="#5CB615" fill-rule="nonzero">
            <path d="M21.9159664,22.1142857 L1.77815126,22.1142857 C1.65378151,22.1142857 1.54285714,22.0033613 1.54285714,21.8789916 L1.54285714,13.3243697 C1.54285714,13.2033613 1.65378151,13.0957983 1.77815126,13.0957983 L8.43361345,13.0957983 L8.43361345,13.3815126 C8.43361345,15.2 9.91260504,16.6823529 11.7310924,16.6823529 L11.9630252,16.6823529 C13.7815126,16.6823529 15.2638655,15.2033613 15.2638655,13.3815126 L15.2638655,13.0957983 L21.9193277,13.0957983 C22.0537815,13.0957983 22.1310924,13.1932773 22.1478992,13.2605042 L22.1546218,21.8823529 C22.1512605,22.0067227 22.0470588,22.1142857 21.9159664,22.1142857 L21.9159664,22.1142857 Z M3.45546218,1.86890756 C3.46218487,1.82521008 3.46554622,1.78487395 3.46554622,1.74453782 C3.46554622,1.61680672 3.5697479,1.51260504 3.69747899,1.51260504 L19.9932773,1.52941176 C20.1512605,1.52941176 20.302521,1.70420168 20.3462185,1.92268908 L21.8789916,11.5798319 L14.5109244,11.5798319 C14.0941176,11.5798319 13.7579832,11.9193277 13.7579832,12.3361345 L13.7579832,13.3747899 C13.7579832,14.3630252 12.9546218,15.1630252 11.9630252,15.1630252 L11.7310924,15.1630252 C10.7428571,15.1630252 9.9394958,14.3596639 9.9394958,13.3747899 L9.9394958,12.3361345 C9.9394958,11.9193277 9.60336134,11.5798319 9.18655462,11.5798319 L1.82521008,11.5798319 L3.45546218,1.86890756 Z M23.6436975,13.1932773 C23.6403361,13.1697479 23.6504202,13.1529412 23.6470588,13.1294118 L21.8285714,1.67058824 C21.6504202,0.699159664 20.897479,0.0201680672 19.9932773,0.0201680672 L3.69747899,0.00336134454 C2.76302521,0.00336134454 1.99663866,0.746218487 1.95966387,1.67731092 L0.0470588235,13.0487395 C0.043697479,13.0789916 0.0504201681,13.1092437 0.0504201681,13.1394958 C0.043697479,13.2 0.0302521008,13.2605042 0.0302521008,13.3243697 L0.0302521008,21.8789916 C0.0302521008,22.8436975 0.810084034,23.6268908 1.77142857,23.6268908 L21.9159664,23.6268908 C22.8773109,23.6268908 23.6571429,22.8436975 23.6571429,21.8789916 L23.6571429,13.3243697 C23.6571429,13.2773109 23.6470588,13.2336134 23.6436975,13.1932773 Z" id="Archivador_2Regular"></path>
        </g>
    </g>
</svg>

<svg width="24" height="24" viewBox="0 0 24 24" xmlns="http://www.w3.org/2000/svg"><path d="M21.916 22.114H1.778a.243.243 0 01-.235-.235v-8.555a.24.24 0 01.235-.228h6.656v.286c0 1.818 1.479 3.3 3.297 3.3h.232c1.819 0 3.3-1.479 3.3-3.3v-.286h6.656c.135 0 .212.097.229.165l.007 8.621a.24.24 0 01-.239.232zM3.456 1.87a.808.808 0 00.01-.124c0-.128.104-.232.231-.232l16.296.016c.158 0 .31.175.353.394l1.533 9.657h-7.368a.755.755 0 00-.753.756v1.039c0 .988-.803 1.788-1.795 1.788h-.232a1.792 1.792 0 01-1.792-1.788v-1.039a.755.755 0 00-.752-.756H1.825l1.63-9.711zm20.188 11.324c-.004-.023.006-.04.003-.064L21.83 1.671C21.65.699 20.897.02 19.993.02L3.697.002c-.934 0-1.7.743-1.737 1.674L.047 13.05c-.003.03.003.06.003.09-.006.061-.02.122-.02.185v8.555c0 .965.78 1.748 1.741 1.748h20.145c.961 0 1.741-.783 1.741-1.748v-8.555c0-.047-.01-.09-.013-.13z" fill="#5CB615" fill-rule="nonzero"/></svg>
